svg/logo/drive_fill.svg

<?xml version="1.0" encoding="UTF-8"?>
<svg width="24px" height="24px" viewBox="0 0 24 24" version="1.1" xmlns="http://www.w3.org/2000/svg" xmlns:xlink="http://www.w3.org/1999/xlink">
    <title>drive_fill</title>
    <g id="Icon" stroke="none" stroke-width="1" fill="none" fill-rule="evenodd">
        <g id="Logo" transform="translate(-144.000000, -336.000000)" fill-rule="nonzero">
            <g id="drive_fill" transform="translate(144.000000, 336.000000)">
                <path d="M24,0 L24,24 L0,24 L0,0 L24,0 Z M12.5935,23.2578 L12.5819,23.2595 L12.5109,23.295 L12.4919,23.2987 L12.4767,23.295 L12.4057,23.2595 C12.3958,23.2564 12.387,23.259 12.3821,23.2649 L12.378,23.2758 L12.3609,23.7031 L12.3659,23.7235 L12.3769,23.7357 L12.4805,23.8097 L12.4953,23.8136 L12.5071,23.8097 L12.6107,23.7357 L12.6233,23.7197 L12.6267,23.7031 L12.6096,23.2758 C12.6076,23.2657 12.601,23.2593 12.5935,23.2578 Z M12.8584,23.1453 L12.8445,23.1473 L12.6598,23.2397 L12.6499,23.2499 L12.6472,23.2611 L12.6651,23.6906 L12.6699,23.7034 L12.6784,23.7105 L12.8793,23.8032 C12.8914,23.8069 12.9022,23.803 12.9078,23.7952 L12.9118,23.7812 L12.8777,23.1665 C12.8753,23.1546 12.8674,23.147 12.8584,23.1453 Z M12.143,23.1473 C12.1332,23.1424 12.1222,23.1453 12.1156,23.1526 L12.1099,23.1665 L12.0758,23.7812 C12.0751,23.7927 12.0828,23.8019 12.0926,23.8046 L12.1083,23.8032 L12.3092,23.7105 L12.3186,23.7024 L12.3225,23.6906 L12.3404,23.2611 L12.3372,23.2485 L12.3278,23.2397 L12.143,23.1473 Z" id="MingCute"></path>
                <path d="M21.2375,17 L19.5055,20 C19.1756846,20.5712 18.5877769,20.9399479 17.9372289,20.9932985 L17.7734,21 L6.22636,21 C5.977496,21 5.7352176,20.953728 5.51003104,20.867328 L5.34451,20.7951 L7.53562,17 L21.2375,17 Z M8.57674,3.33882 L10.8451,7.26777 L3.99424,19.1338 L2.18494,16.0001 C1.82768,15.3813 1.82768,14.6189 2.18494,14.0001 L7.95848,4 C8.11399,3.73064 8.32692,3.5063 8.57674,3.33882 Z M14.3093,3 C14.9689308,3 15.5822089,3.32480947 15.9536823,3.86148311 L16.0414,4 L21.8149,14 C21.9637333,14.2578333 22.0505528,14.5405972 22.0753583,14.8275162 L22.0828,15 L17.6187,15 L10.6905,3 L14.3093,3 Z M11.9998,9.26777 L15.3093,15 L8.69032,15 L11.9998,9.26777 Z" id="形状" fill="#09244B"></path>
            </g>
        </g>
    </g>
</svg>

<svg xmlns="http://www.w3.org/2000/svg" width="24" height="24"><g fill="none" fill-rule="nonzero"><path d="M24 0v24H0V0h24ZM12.594 23.258l-.012.002-.071.035-.02.004-.014-.004-.071-.036c-.01-.003-.019 0-.024.006l-.004.01-.017.428.005.02.01.013.104.074.015.004.012-.004.104-.074.012-.016.004-.017-.017-.427c-.002-.01-.009-.017-.016-.018Zm.264-.113-.014.002-.184.093-.01.01-.003.011.018.43.005.012.008.008.201.092c.012.004.023 0 .029-.008l.004-.014-.034-.614c-.003-.012-.01-.02-.02-.022Zm-.715.002a.023.023 0 0 0-.027.006l-.006.014-.034.614c0 .012.007.02.017.024l.015-.002.201-.093.01-.008.003-.011.018-.43-.003-.012-.01-.01-.184-.092Z"/><path fill="#09244B" d="m21.238 17-1.732 3a2 2 0 0 1-1.569.993l-.164.007H6.226c-.249 0-.49-.046-.716-.133l-.165-.072L7.535 17h13.703ZM8.577 3.339l2.268 3.929-6.85 11.866L2.184 16a2 2 0 0 1 0-2L7.958 4c.156-.27.369-.494.619-.661ZM14.309 3a2 2 0 0 1 1.645.861L16.04 4l5.774 10c.149.258.236.54.26.828l.008.172h-4.464L10.69 3h3.618ZM12 9.268 15.31 15H8.69L12 9.268Z"/></g></svg>
